icons/svg/seamark_big/landmark_tower_church_additional.svg

<?xml version="1.0" encoding="UTF-8" standalone="no"?>
<svg
   xmlns:dc="http://purl.org/dc/elements/1.1/"
   xmlns:cc="http://creativecommons.org/ns#"
   xmlns:rdf="http://www.w3.org/1999/02/22-rdf-syntax-ns#"
   xmlns:svg="http://www.w3.org/2000/svg"
   xmlns="http://www.w3.org/2000/svg"
   xmlns:sodipodi="http://sodipodi.sourceforge.net/DTD/sodipodi-0.dtd"
   xmlns:inkscape="http://www.inkscape.org/namespaces/inkscape"
   width="1060"
   height="1060"
   id="svg2"
   version="1.1"
   inkscape:version="0.48.4 r9939"
   sodipodi:docname="landmark_church_additional.svg">
  <defs
     id="defs13">
    <inkscape:path-effect
       effect="gears"
       id="path-effect3774"
       is_visible="true"
       teeth="6"
       phi="-1.2" />
    <inkscape:path-effect
       effect="bend_path"
       id="path-effect3772"
       is_visible="false"
       bendpath="m 95.790098,316.51174 c 144.429032,-206.42506 223.313032,-11.7428 339.548092,0"
       prop_scale="1.19"
       scale_y_rel="false"
       vertical="false"
       bendpath-nodetypes="cc" />
  </defs>
  <sodipodi:namedview
     pagecolor="#ffffff"
     bordercolor="#666666"
     borderopacity="1"
     objecttolerance="10"
     gridtolerance="10"
     guidetolerance="10"
     inkscape:pageopacity="0"
     inkscape:pageshadow="2"
     inkscape:window-width="1920"
     inkscape:window-height="1004"
     id="namedview11"
     showgrid="false"
     inkscape:zoom="0.57543862"
     inkscape:cx="573.03607"
     inkscape:cy="594.12261"
     inkscape:window-x="1680"
     inkscape:window-y="0"
     inkscape:window-maximized="1"
     inkscape:current-layer="svg2"
     inkscape:snap-object-midpoints="true"
     inkscape:snap-center="true" />
  <metadata
     id="metadata2975">image/svg+xmlen<rdf:RDF>
  <cc:Work
     rdf:about="">
    <dc:format>image/svg+xml</dc:format>
    <dc:type
       rdf:resource="http://purl.org/dc/dcmitype/StillImage" />
    <dc:title></dc:title>
  </cc:Work>
</rdf:RDF>
</metadata>
  <path
     sodipodi:type="inkscape:offset"
     inkscape:radius="29.491526"
     inkscape:original="M 376.75 365.90625 C 370.92621 365.90625 365.90625 370.92621 365.90625 376.75 L 365.90625 683.25 C 365.90625 689.07379 370.92621 694.09375 376.75 694.09375 L 683.25 694.09375 C 689.07379 694.09375 694.09375 689.07379 694.09375 683.25 L 694.09375 376.75 C 694.09375 370.92621 689.07379 365.90625 683.25 365.90625 L 376.75 365.90625 z M 387.34375 387.34375 L 672.65625 387.34375 L 672.65625 672.65625 L 387.34375 672.65625 L 387.34375 387.34375 z "
     style="font-size:medium;font-style:normal;font-variant:normal;font-weight:normal;font-stretch:normal;text-indent:0;text-align:start;text-decoration:none;line-height:normal;letter-spacing:normal;word-spacing:normal;text-transform:none;direction:ltr;block-progression:tb;writing-mode:lr-tb;text-anchor:start;baseline-shift:baseline;color:#000000;fill:#e4e4e4;fill-opacity:1;stroke:#a35151;stroke-width:0;marker:none;visibility:visible;display:inline;overflow:visible;enable-background:accumulate;font-family:Sans;-inkscape-font-specification:Sans;opacity:0.37200000000000000;fill-rule:nonzero;stroke-linecap:round;stroke-linejoin:miter;stroke-miterlimit:4;stroke-opacity:1;stroke-dasharray:none;stroke-dashoffset:0"
     id="path3972"
     d="m 376.75,336.40625 c -22.77109,0 -40.34375,17.57266 -40.34375,40.34375 l 0,306.5 c 0,22.77109 17.57266,40.34375 40.34375,40.34375 l 306.5,0 c 22.77109,0 40.34375,-17.57266 40.34375,-40.34375 l 0,-306.5 c 0,-22.77109 -17.57266,-40.34375 -40.34375,-40.34375 l -306.5,0 z m 40.09375,80.4375 226.3125,0 0,226.3125 -226.3125,0 0,-226.3125 z" />
  <rect
     style="color:#000000;fill:none;stroke:#000000;stroke-width:21.42657089;stroke-linecap:round;stroke-linejoin:miter;stroke-miterlimit:4;stroke-opacity:1;stroke-dasharray:none;stroke-dashoffset:0;marker:none;visibility:visible;display:inline;overflow:visible;enable-background:accumulate"
     id="rect3891"
     width="306.74231"
     height="306.74231"
     x="376.62885"
     y="376.62885"
     ry="0.13346618" />
</svg>

<svg width="1060" height="1060" viewBox="0 0 1060 1060" fill="none" xmlns="http://www.w3.org/2000/svg">
<path opacity="0.372" d="M376.75 336.406C353.979 336.406 336.406 353.979 336.406 376.75V683.25C336.406 706.021 353.979 723.594 376.75 723.594H683.25C706.021 723.594 723.594 706.021 723.594 683.25V376.75C723.594 353.979 706.021 336.406 683.25 336.406H376.75ZM416.844 416.844H643.156V643.156H416.844V416.844Z" fill="#E4E4E4"/>
<path d="M683.238 376.629H376.762C376.689 376.629 376.629 376.689 376.629 376.762V683.238C376.629 683.311 376.689 683.371 376.762 683.371H683.238C683.311 683.371 683.371 683.311 683.371 683.238V376.762C683.371 376.689 683.311 376.629 683.238 376.629Z" stroke="black" stroke-width="21.4266" stroke-linecap="round"/>
</svg>
